packages/dnb-ui-lib/assets/icons/kid_number.svg

<svg width="16" height="16" viewBox="0 0 16 16" fill="none" xmlns="http://www.w3.org/2000/svg">
<path fill-rule="evenodd" clip-rule="evenodd" d="M2.25 1.75C1.2835 1.75 0.5 2.5335 0.5 3.5V12.5446C0.5 13.5111 1.2835 14.2946 2.25 14.2946H13.7489C14.7154 14.2946 15.4989 13.5111 15.4989 12.5446V3.5C15.4989 2.5335 14.7154 1.75 13.7489 1.75H2.25ZM2 3.5C2 3.36193 2.11193 3.25 2.25 3.25H13.7489C13.887 3.25 13.9989 3.36193 13.9989 3.5V12.5446C13.9989 12.6826 13.887 12.7946 13.7489 12.7946H2.25C2.11193 12.7946 2 12.6826 2 12.5446V3.5ZM6.65993 5.90166H5.59695L4.34394 7.57036V5.90166H3.45317V10.0586H4.34394V8.79368L4.52803 8.56209L5.53756 10.0586H6.65993L5.05655 7.90292L6.65993 5.90166ZM7.31107 10.0586H8.20184V5.90166H7.31107V10.0586ZM9.21184 5.90166H10.4292C11.7238 5.90166 12.5492 6.72711 12.5492 7.98012C12.5492 9.23313 11.7238 10.0586 10.4292 10.0586H9.21184V5.90166ZM10.1026 9.34596H10.3461C11.1596 9.34596 11.6407 8.8115 11.6407 7.98012C11.6407 7.14874 11.1596 6.61427 10.3461 6.61427H10.1026V9.34596Z" fill="black"/>
</svg>

<svg width="16" height="16" viewBox="0 0 16 16" fill="none" xmlns="http://www.w3.org/2000/svg"><path fill-rule="evenodd" clip-rule="evenodd" d="M2.25 1.75A1.75 1.75 0 00.5 3.5v9.045c0 .966.784 1.75 1.75 1.75h11.499a1.75 1.75 0 001.75-1.75V3.5a1.75 1.75 0 00-1.75-1.75H2.25zM2 3.5a.25.25 0 01.25-.25h11.499a.25.25 0 01.25.25v9.045a.25.25 0 01-.25.25H2.25a.25.25 0 01-.25-.25V3.5zm4.66 2.402H5.597L4.344 7.57V5.902h-.89v4.157h.89V8.794l.184-.232 1.01 1.497H6.66L5.057 7.903 6.66 5.902zm.651 4.157h.89V5.902h-.89v4.157zm1.9-4.157h1.218c1.295 0 2.12.825 2.12 2.078s-.825 2.079-2.12 2.079H9.212V5.902zm.892 3.444h.243c.814 0 1.295-.534 1.295-1.366 0-.831-.481-1.366-1.295-1.366h-.243v2.732z" fill="#000"/></svg>
